src/icons/summernote.svg

<?xml version="1.0" encoding="UTF-8" standalone="no"?><!DOCTYPE svg PUBLIC "-//W3C//DTD SVG 1.1//EN" "http://www.w3.org/Graphics/SVG/1.1/DTD/svg11.dtd"><svg width="100%" height="100%" viewBox="0 0 512 512" version="1.1" xmlns="http://www.w3.org/2000/svg" xmlns:xlink="http://www.w3.org/1999/xlink" xml:space="preserve" xmlns:serif="http://www.serif.com/" style="fill-rule:evenodd;clip-rule:evenodd;stroke-linejoin:round;stroke-miterlimit:2;"><g transform="matrix(0.356036,0,0,0.356036,73.7098,73.7098)"><g id="summernote"><path d="M1122.03,577.898l-88.591,0c3.008,-20.122 4.717,-42.619 4.717,-66.15c0,-23.012 -1.648,-44.522 -4.525,-64.644l88.399,0c35.312,0 64.057,30.085 64.057,65.397c0,35.312 -28.745,65.397 -64.057,65.397Zm-192.866,-386c-28.003,-36.409 -60.644,-69.05 -97.054,-97.055l62.724,-62.723c12.914,-12.914 30.148,-20.027 48.526,-20.027c18.38,0 35.613,7.113 48.528,20.027c12.916,12.915 20.028,30.149 20.028,48.527c0,18.38 -7.112,35.614 -20.028,48.529l-62.724,62.722Zm-539.028,428.487c-3.634,11.019 2.45,17.102 13.468,13.506l138.187,-45.112l358.882,-358.991c57.642,79.246 91.731,176.728 91.731,282.218c0,265.319 -215.083,480.402 -480.402,480.402c-265.318,0 -480.401,-215.083 -480.401,-480.402c0,-265.318 215.083,-480.401 480.401,-480.401c105.49,0 202.969,34.088 282.217,91.73l-359.027,358.901l-45.056,138.149Zm56.543,-629.925l0,-88.493c0,-35.312 30.084,-64.057 65.396,-64.057c35.313,0 65.397,28.745 65.397,64.057l0,88.522c-20.122,-2.953 -42.2,-4.636 -65.51,-4.636c-23.232,0 -45.161,1.673 -65.283,4.607Zm-348.188,196.794l-63.699,-63.212c-24.976,-24.976 -25.533,-63.714 -0.557,-88.69c24.977,-24.961 64.478,-24.991 89.483,0l63.069,63.507c-32.808,25.882 -62.45,55.558 -88.296,88.395Zm-196.527,390.644c-35.312,0 -64.057,-30.085 -64.057,-65.397c0,-35.312 28.745,-65.397 64.057,-65.397l88.41,0c-2.877,20.122 -4.525,41.632 -4.525,64.644c0,23.531 1.709,46.028 4.718,66.15l-88.603,0Zm197.125,259.621c25.743,32.586 55.234,62.043 87.849,87.753l-63.22,63.724c-12.495,12.481 -26.665,19.07 -43.064,19.07c-16.411,0 -32.81,-5.589 -45.305,-18.07c-24.976,-24.976 -24.976,-64.287 0,-89.264l63.74,-63.213Zm478.383,196.005l0,88.509c0,35.312 -30.084,64.057 -65.397,64.057c-35.312,0 -65.396,-28.745 -65.396,-64.057l0,-88.481c20.122,2.934 42.051,4.608 65.283,4.608c23.31,0 45.388,-1.683 65.51,-4.636Zm347.549,-196.137l63.933,63.345c24.976,24.977 25.268,62.954 0.292,87.931c-12.495,12.481 -28.306,18.736 -44.704,18.736c-16.412,0 -31.638,-6.255 -44.132,-18.736l-63.111,-63.573c32.567,-25.701 62.014,-55.141 87.722,-87.703Z" style="fill:#333;"/></g></g></svg>

<svg xmlns="http://www.w3.org/2000/svg" xmlns:xlink="http://www.w3.org/1999/xlink" preserveAspectRatio="xMidYMid" width="1024" height="1024" viewBox="0 0 1024 1024">
  <defs>
    <style>
      .cls-1 {
        fill: #000;
        fill-rule: evenodd;
      }
    </style>
  </defs>
  <path d="M1122.033,577.898 L1033.442,577.898 C1036.450,557.776 1038.159,535.279 1038.159,511.748 C1038.159,488.736 1036.511,467.226 1033.634,447.104 L1122.033,447.104 C1157.345,447.104 1186.090,477.189 1186.090,512.501 C1186.090,547.813 1157.345,577.898 1122.033,577.898 ZM929.167,191.898 C901.164,155.489 868.523,122.848 832.113,94.843 L894.837,32.120 C907.751,19.206 924.985,12.093 943.363,12.093 C961.743,12.093 978.976,19.206 991.891,32.120 C1004.807,45.035 1011.919,62.269 1011.919,80.647 C1011.919,99.027 1004.807,116.261 991.891,129.176 L929.167,191.898 ZM390.139,620.385 C386.505,631.404 392.589,637.487 403.607,633.891 L541.794,588.779 L900.676,229.788 C958.318,309.034 992.407,406.516 992.407,512.006 C992.407,777.325 777.324,992.408 512.005,992.408 C246.687,992.408 31.604,777.325 31.604,512.006 C31.604,246.688 246.687,31.605 512.005,31.605 C617.495,31.605 714.974,65.693 794.222,123.335 L435.195,482.236 L390.139,620.385 ZM446.682,-9.540 L446.682,-98.033 C446.682,-133.345 476.766,-162.090 512.078,-162.090 C547.391,-162.090 577.475,-133.345 577.475,-98.033 L577.475,-9.511 C557.353,-12.464 535.275,-14.147 511.965,-14.147 C488.733,-14.147 466.804,-12.474 446.682,-9.540 ZM98.494,187.254 L34.795,124.042 C9.819,99.066 9.262,60.328 34.238,35.352 C59.215,10.391 98.716,10.361 123.721,35.352 L186.790,98.859 C153.982,124.741 124.340,154.417 98.494,187.254 ZM-98.033,577.898 C-133.345,577.898 -162.090,547.813 -162.090,512.501 C-162.090,477.189 -133.345,447.104 -98.033,447.104 L-9.623,447.104 C-12.500,467.226 -14.148,488.736 -14.148,511.748 C-14.148,535.279 -12.439,557.776 -9.430,577.898 L-98.033,577.898 ZM99.092,837.519 C124.835,870.105 154.326,899.562 186.941,925.272 L123.721,988.996 C111.226,1001.477 97.056,1008.066 80.657,1008.066 C64.246,1008.066 47.847,1002.477 35.352,989.996 C10.376,965.020 10.376,925.709 35.352,900.732 L99.092,837.519 ZM577.475,1033.524 L577.475,1122.033 C577.475,1157.345 547.391,1186.090 512.078,1186.090 C476.766,1186.090 446.682,1157.345 446.682,1122.033 L446.682,1033.552 C466.804,1036.486 488.733,1038.160 511.965,1038.160 C535.275,1038.160 557.353,1036.477 577.475,1033.524 ZM925.024,837.387 L988.957,900.732 C1013.933,925.709 1014.225,963.686 989.249,988.663 C976.754,1001.144 960.943,1007.399 944.545,1007.399 C928.133,1007.399 912.907,1001.144 900.413,988.663 L837.302,925.090 C869.869,899.389 899.316,869.949 925.024,837.387 Z" class="cls-1"/>
</svg>
